X:1
T:Rutherford, 76.76 D
T:Rutherford, 76.76 D
T:Arranged from Chrétien d’Urhan, 1834
T:Public Domain Courtesy of the Cyber Hymnal™
C:Arranged from Chrétien d’Urhan, 1834
Z:Public Domain
Z:Courtesy of the Cyber Hymnal™
%%score ( 1 2 ) ( 3 4 )
L:1/8
Q:1/4=110
M:4/4
K:F
V:1 treble 
V:2 treble 
V:3 bass 
V:4 bass 
V:1
 [FA]2 | [FA]2 [FA]2 [EG]3 [EG] | [DF]4 [DF]2 F2 | [FB]3 [FB] [FA]2 [FB]2 | [EG]6 [EG]2 | %5
 [Fc]3 [Fc] [EB]2 [EB]2 | [FA]4 [DG]2 [DG]2 | [CF]2 [CF]2 (EF) (GE) | [CF]6 [CF]2 | %9
 [DF]3 [DF] F2 [EG]2 | [FA]4 [FA]2 [CF]2 | [DF]3 [DF] F2 [EG]2 | [FA]6 ([FA][EB]) | %13
 [Fc]2 [Fc]2 [Fd]3 [Fc] | [Fc]4 [EB]2 [EB]2 | [FA]2 [FA]2 [EG]3 [CF] | [CF]6 |] %17
V:2
 x2 | x8 | x6 F2 | x8 | x8 | x8 | x8 | x4 C2 C2 | x8 | x4 F2 x2 | x8 | x4 F2 x2 | x8 | x8 | x8 | %15
 x8 | x6 |] %17
V:3
 [F,C]2 | [F,C]2 [F,C]2 [C,B,]3 [C,B,] | [D,A,]4 [D,A,]2 [D,A,]2 | [B,,D]3 [B,,D] [F,C]2 [B,,D]2 | %4
 [C,C]6 [B,C]2 | [A,C]3 [A,C] [G,C]2 [G,C]2 | [F,C]4 [B,,B,]2 [B,,B,]2 | %7
 [C,A,]2 [C,A,]2 (G,A,) (B,G,) | [F,A,]6 [F,A,]2 | [B,D]3 [B,D] [B,_D]2 [B,D]2 | %10
 [F,C]4 [F,C]2 [F,A,]2 | [B,D]3 [B,D] [B,_D]2 [B,D]2 | [F,C]6 C2 | [A,C]2 [A,C]2 B,3 [A,C] | %14
 [A,C]4 [G,C]2 [G,C]2 | [F,C]2 [F,C]2 [C,B,]3 [F,A,] | [F,A,]6 |] %17
V:4
 x2 | x8 | x8 | x8 | x8 | x8 | x8 | x4 C,2 C,2 | x8 | x8 | x8 | x8 | x6 (F,G,) | x8 | x8 | x8 | %16
 x6 |] %17

